X: 82
T:Missa D'ung aultre amer / Gloria
N: Derived from Jos0703b-Missa_Dung_aultre_amer-Gloria.krn
C: Josquin des Prez
%%abc-version 2.0
%%abcx-abcm2ps-target-version 5.9.1 (29 Sep 2008)
%%abc-creator hum2abc beta
%%abcx-conversion-date 2019/02/12 16:15:42
%%abc-edited-by Jesse Rodin
%%abc-edited-by Jesse Rodin; Victoria Chang 2012/02/27
%%abcx-initial-encoding-date 2012/02/27/
%%humdrum-veritas 427998238
%%humdrum-veritas-data 1494311348
%%linebreak <none>
%%barnumbers 0
L: 1/4
M: 2/1
Q: 1/2=120
%%staves [1 2 3 4]
V: 1 clef=treble
V: 2 clef=treble-8
V: 3 clef=treble-8
V: 4 clef=bass
K: F
[V:1] G2G2G2G2 | 
[V:2] d3dd2d2 | 
[V:3] G8 | 
[V:4] G,,2G,,2G,,2G,,2 | 
[V:1] A3Bc2c2 | 
[V:2] d2D2E2E2 | 
[V:3] F4G4 | 
[V:4] D,2D,2C,2C,2 | 
[V:1] d2d2d2d2 | 
[V:2] F2F2F2G2 | 
[V:3] B8 | 
[V:4] B,,2B,,2B,,2B,,2 | 
[V:1] c3BG4 | 
[V:2] A3FG4 | 
[V:3] c8 | 
[V:4] F,4E,4 | 
[V:1] F4z2F2 | 
[V:2] A2A2A2A2 | 
[V:3] d6c2 | 
[V:4] D,2D,2D,2D,2 | 
[V:1] G2D2E2F2 | 
[V:2] G4z4 | 
[V:3] B4A4 | 
[V:4] G,,4z4 | 
[V:1] G2B4AG | 
[V:2] z8 | 
[V:3] G6FE | 
[V:4] G,,2G,,2B,,2C,2 | 
[V:1] F8- | 
[V:2] d2d2d2f2- | 
[V:3] D8 | 
[V:4] D,4B,,4- | 
[V:1] F8 | 
[V:2] f2d2c4 | 
[V:3] B4A4 | 
[V:4] B,,4F,4 | 
[V:1] z2D2D2_E2 | 
[V:2] B8 | 
[V:3] B4G4 | 
[V:4] B,,2G,,2B,,3C, | 
[V:1] D3CB,2A,2 | 
[V:2] z8 | 
[V:3] F2F4EF | 
[V:4] D,8 | 
[V:1] G,2G4G2 | 
[V:2] d4c4 | 
[V:3] G4C4- | 
[V:4] z8 | 
[V:1] G2G2G2G2 | 
[V:2] c4B4 | 
[V:3] C4G4 | 
[V:4] z8 | 
[V:1] A2B4AG | 
[V:2] A2G2d4 | 
[V:3] F2G4FE | 
[V:4] z4G,,4 | 
[V:1] F4z4 | 
[V:2] A2B2c4 | 
[V:3] F2D2C4 | 
[V:4] D,2B,,2A,,4 | 
[V:1] D3DD2D2 | 
[V:2] B8 | 
[V:3] G8 | 
[V:4] G,,2G,,2G,,2G,,2 | 
[V:1] D2D2D2D2 | 
[V:2] z8 | 
[V:3] D4F4 | 
[V:4] D,8 | 
[V:1] C2C2C2C2 | 
[V:2] z8 | 
[V:3] E8 | 
[V:4] A,,8 | 
[V:1] D3CB,2A,2 | 
[V:2] z4d4 | 
[V:3] D8 | 
[V:4] F,8 | 
[V:1] G,4z4 | 
[V:2] d2d2d2e2 | 
[V:3] B8 | 
[V:4] G,8 | 
[V:1] z8 | 
[V:2] f3ff2f2 | 
[V:3] c4c4 | 
[V:4] F,8 | 
[V:1] B3BB2B2 | 
[V:2] f4d4 | 
[V:3] d8 | 
[V:4] B,,8 | 
[V:1] c2c2c2c2 | 
[V:2] c4c4 | 
[V:3] _e8 | 
[V:4] z8 | 
[V:1] d2d2d2d2 | 
[V:2] B4z4 | 
[V:3] d4f4- | 
[V:4] B,,6B,,2 | 
[V:1] c4d4- | 
[V:2] z2f2f2d2 | 
[V:3] f4B4- | 
[V:4] F,,2F,,2B,,3C, | 
[V:1] d4z4 | 
[V:2] f3ec4 | 
[V:3] B4A4 | 
[V:4] D,2B,,2F,4 | 
[V:1] z2d2d2d2 | 
[V:2] B4z4 | 
[V:3] B8 | 
[V:4] B,,8 | 
[V:1] c3BA2G2 | 
[V:2] F4c4 | 
[V:3] f4e4 | 
[V:4] z8 | 
[V:1] F4z4 | 
[V:2] F2F2F2F2 | 
[V:3] f4d4- | 
[V:4] F,3F,F,2D,2 | 
[V:1] z2B2c2c2 | 
[V:2] F2F2G2A2 | 
[V:3] d4e4 | 
[V:4] B,,2D,2C,4 | 
[V:1] d2f3edc | 
[V:2] B8 | 
[V:3] f4B4 | 
[V:4] B,,8 | 
[V:1] edcBA3G | 
[V:2] z4c4 | 
[V:3] c8 | 
[V:4] z4F,,4 | 
[V:1] B8 | 
[V:2] d6c2 | 
[V:3] B6A2 | 
[V:4] B,,3C,D,E,F,2 | 
[V:1] z4A4 | 
[V:2] B2AGA4 | 
[V:3] G4^F4 | 
[V:4] G,4D,4 | 
[V:1] B2G2B2c2 | 
[V:2] G8 | 
[V:3] G8 | 
[V:4] G,,8 | 
[V:1] d3cA4 | 
[V:2] z8 | 
[V:3] D8 | 
[V:4] z4z2F,2 | 
[V:1] G4z4 | 
[V:2] z2g4g2 | 
[V:3] E8 | 
[V:4] G,2A,2B,2C2 | 
[V:1] z4A4 | 
[V:2] f3ed2c2 | 
[V:3] F8 | 
[V:4] A,8 | 
[V:1] B2d3cB2- | 
[V:2] B2G2B2c2 | 
[V:3] G8 | 
[V:4] z4G,4 | 
[V:1] B2AGF2A2 | 
[V:2] d4z2d2 | 
[V:3] B4A4 | 
[V:4] G,4D,4 | 
[V:1] A3GF2E2 | 
[V:2] e2e2c2c2 | 
[V:3] c8 | 
[V:4] A,4A,4 | 
[V:1] D2F2G2A2 | 
[V:2] f4z2f2 | 
[V:3] d4B2c2 | 
[V:4] D,2D,2G,2F,2 | 
[V:1] B2A2c2B2- | 
[V:2] f2f2f2d2 | 
[V:3] d3cA2G2- | 
[V:4] B,,2F,4G,2 | 
[V:1] BAG3^FFE | 
[V:2] e2d3cA2 | 
[V:3] G2B2A4 | 
[V:4] E,2G,2D,4 | 
[V:1] G8- | 
[V:2] BAGF_E2D2 | 
[V:3] G8- | 
[V:4] G,,8- | 
[V:1] G8 |]  
[V:2] D8 |]  
[V:3] G8 |]  
[V:4] G,,8 |]  



